dist/img/facebook.svg

<svg width="11" height="21" viewBox="0 0 11 21" fill="none" xmlns="http://www.w3.org/2000/svg">
<path d="M8.4375 3.82031C7.96875 3.82031 7.59115 3.89844 7.30469 4.05469C7.04427 4.21094 6.875 4.40625 6.79688 4.64062C6.71875 4.875 6.67969 5.17448 6.67969 5.53906V8H10L9.53125 11.5547H6.67969V20.5H3.00781V11.5547H0V8H3.00781V5.1875C3.00781 3.70312 3.42448 2.55729 4.25781 1.75C5.09115 0.916667 6.19792 0.5 7.57812 0.5C8.69792 0.5 9.60938 0.552083 10.3125 0.65625V3.82031H8.4375Z" fill="black"/>
</svg>

<svg width="11" height="21" viewBox="0 0 11 21" fill="none" xmlns="http://www.w3.org/2000/svg"><path d="M8.438 3.82c-.47 0-.847.078-1.133.235-.26.156-.43.351-.508.586-.078.234-.117.533-.117.898V8H10l-.469 3.555H6.68V20.5H3.008v-8.945H0V8h3.008V5.187c0-1.484.416-2.63 1.25-3.437C5.09.917 6.198.5 7.578.5c1.12 0 2.031.052 2.734.156V3.82H8.438z" fill="#000"/></svg>
